icons/plexis/48/kshisen.svg

<svg viewBox="0 0 48 48" xmlns="http://www.w3.org/2000/svg" xmlns:xlink="http://www.w3.org/1999/xlink">
  <linearGradient id="a" gradientTransform="matrix(0 -1 1 0 -.0000015 47.999998)" gradientUnits="userSpaceOnUse" x1="1" x2="47">
    <stop offset="0" stop-color="#9c7a40"/>
    <stop offset="1" stop-color="#ab8746"/>
  </linearGradient>
  <path d="m47 24c0 22.703-.297 23-23 23-22.703 0-23-.297-23-23 0-22.703.297-23 23-23 22.703 0 23 .297 23 23z" fill="url(#a)"/>
  <g fill-opacity=".102">
    <rect height="20" rx="2" width="13" x="11" y="15"/>
    <rect height="20" rx="2" width="13" x="26" y="15"/>
  </g>
  <rect fill="#f4eee4" height="20" rx="2" width="13" x="10" y="14"/>
  <rect fill="#f4eee4" height="20" rx="2" width="13" x="25" y="14"/>
  <path d="m28.5 16a2.5 2.5 0 0 0-2.5 2.5 2.5 2.5 0 0 0  2.5 2.5 2.5 2.5 0 0 0  2.5-2.5 2.5 2.5 0 0 0-2.5-2.5m0 1a1.5 1.5 0 0 1 1.5 1.5 1.5 1.5 0 0 1-1.5 1.5 1.5 1.5 0 0 1-1.5-1.5 1.5 1.5 0 0 1  1.5-1.5" fill="#3d8b58"/>
  <circle cx="28.5" cy="18.5" fill="#3d8b58" r=".5"/>
  <path d="m34.5 16a2.5 2.5 0 0 0-2.5 2.5 2.5 2.5 0 0 0  2.5 2.5 2.5 2.5 0 0 0  2.5-2.5 2.5 2.5 0 0 0-2.5-2.5m0 1a1.5 1.5 0 0 1 1.5 1.5 1.5 1.5 0 0 1-1.5 1.5 1.5 1.5 0 0 1-1.5-1.5 1.5 1.5 0 0 1  1.5-1.5" fill="#606060"/>
  <circle cx="34.5" cy="18.5" fill="#606060" r=".5"/>
  <path d="m28.5 27a2.5 2.5 0 0 0-2.5 2.5 2.5 2.5 0 0 0  2.5 2.5 2.5 2.5 0 0 0  2.5-2.5 2.5 2.5 0 0 0-2.5-2.5m0 1a1.5 1.5 0 0 1 1.5 1.5 1.5 1.5 0 0 1-1.5 1.5 1.5 1.5 0 0 1-1.5-1.5 1.5 1.5 0 0 1  1.5-1.5" fill="#606060"/>
  <circle cx="28.5" cy="29.5" fill="#606060" r=".5"/>
  <path d="m34.5 27a2.5 2.5 0 0 0-2.5 2.5 2.5 2.5 0 0 0  2.5 2.5 2.5 2.5 0 0 0  2.5-2.5 2.5 2.5 0 0 0-2.5-2.5m0 1a1.5 1.5 0 0 1 1.5 1.5 1.5 1.5 0 0 1-1.5 1.5 1.5 1.5 0 0 1-1.5-1.5 1.5 1.5 0 0 1  1.5-1.5" fill="#3d8b58"/>
  <circle cx="34.5" cy="29.5" fill="#3d8b58" r=".5"/>
  <path d="m16.5 16a3.5 3.5 0 0 0-3.5 3.5 3.5 3.5 0 0 0  3.5 3.5 3.5 3.5 0 0 0  3.5-3.5 3.5 3.5 0 0 0-3.5-3.5m0 1a2.5 2.5 0 0 1 2.5 2.5 2.5 2.5 0 0 1-2.5 2.5 2.5 2.5 0 0 1-2.5-2.5 2.5 2.5 0 0 1  2.5-2.5" fill="#606060"/>
  <path d="m16.5 18a1.5 1.5 0 0 0-1.5 1.5 1.5 1.5 0 0 0  1.5 1.5 1.5 1.5 0 0 0  1.5-1.5 1.5 1.5 0 0 0-1.5-1.5m0 1a .5.5 0 0 1  .5.5.5.5 0 0 1-.5.5.5.5 0 0 1-.5-.5.5.5 0 0 1  .5-.5" fill="#606060"/>
  <g fill="#3d8b58" transform="translate(0 9)">
    <path d="m16.5 16a3.5 3.5 0 0 0-3.5 3.5 3.5 3.5 0 0 0  3.5 3.5 3.5 3.5 0 0 0  3.5-3.5 3.5 3.5 0 0 0-3.5-3.5m0 1a2.5 2.5 0 0 1 2.5 2.5 2.5 2.5 0 0 1-2.5 2.5 2.5 2.5 0 0 1-2.5-2.5 2.5 2.5 0 0 1  2.5-2.5"/>
    <path d="m16.5 18a1.5 1.5 0 0 0-1.5 1.5 1.5 1.5 0 0 0  1.5 1.5 1.5 1.5 0 0 0  1.5-1.5 1.5 1.5 0 0 0-1.5-1.5m0 1a .5.5 0 0 1  .5.5.5.5 0 0 1-.5.5.5.5 0 0 1-.5-.5.5.5 0 0 1  .5-.5"/>
  </g>
</svg>

<svg xmlns="http://www.w3.org/2000/svg" viewBox="0 0 48 48">
 <defs>
  <linearGradient id="linearGradient3764" x1="1" x2="47" gradientUnits="userSpaceOnUse" gradientTransform="matrix(0,-1,1,0,-1.5e-6,47.999998)">
   <stop style="stop-color:#9c7a40;stop-opacity:1"/>
   <stop offset="1" style="stop-color:#ab8746;stop-opacity:1"/>
  </linearGradient>
 </defs>
 <g>
  
  
  
 </g>
 <g>
  <path d="m 47,24 C 47,46.703 46.703,47 24,47 1.297,47 1,46.703 1,24 1,1.297 1.297,1 24,1 46.703,1 47,1.297 47,24 z" style="fill:url(#linearGradient3764);fill-opacity:1"/>
 </g>
 <g>
  
 </g>
 <g style="fill:#000;fill-opacity:0.102">
  <rect width="13" height="20" x="11" y="15" rx="2"/>
  <rect rx="2" y="15" x="26" height="20" width="13"/>
 </g>
 <g>
  <rect rx="2" y="14" x="10" height="20" width="13" style="fill:#f4eee4;fill-opacity:1"/>
  <rect width="13" height="20" x="25" y="14" rx="2" style="fill:#f4eee4;fill-opacity:1"/>
  <g>
   <path d="M 28.5 16 A 2.5 2.5 0 0 0 26 18.5 2.5 2.5 0 0 0 28.5 21 2.5 2.5 0 0 0 31 18.5 2.5 2.5 0 0 0 28.5 16 m 0 1 A 1.5 1.5 0 0 1 30 18.5 1.5 1.5 0 0 1 28.5 20 1.5 1.5 0 0 1 27 18.5 1.5 1.5 0 0 1 28.5 17" style="fill:#3d8b58;fill-opacity:1"/>
   <circle cx="28.5" cy="18.5" r="0.5" style="fill:#3d8b58;fill-opacity:1"/>
  </g>
  <path d="M 34.5 16 A 2.5 2.5 0 0 0 32 18.5 2.5 2.5 0 0 0 34.5 21 2.5 2.5 0 0 0 37 18.5 2.5 2.5 0 0 0 34.5 16 m 0 1 A 1.5 1.5 0 0 1 36 18.5 1.5 1.5 0 0 1 34.5 20 1.5 1.5 0 0 1 33 18.5 1.5 1.5 0 0 1 34.5 17" style="fill:#606060;fill-opacity:1"/>
  <circle cx="34.5" cy="18.5" r="0.5" style="fill:#606060;fill-opacity:1"/>
  <path d="M 28.5 27 A 2.5 2.5 0 0 0 26 29.5 2.5 2.5 0 0 0 28.5 32 2.5 2.5 0 0 0 31 29.5 2.5 2.5 0 0 0 28.5 27 m 0 1 A 1.5 1.5 0 0 1 30 29.5 1.5 1.5 0 0 1 28.5 31 1.5 1.5 0 0 1 27 29.5 1.5 1.5 0 0 1 28.5 28" style="fill:#606060;fill-opacity:1"/>
  <circle cx="28.5" cy="29.5" r="0.5" style="fill:#606060;fill-opacity:1"/>
  <g>
   <path d="M 34.5 27 A 2.5 2.5 0 0 0 32 29.5 2.5 2.5 0 0 0 34.5 32 2.5 2.5 0 0 0 37 29.5 2.5 2.5 0 0 0 34.5 27 m 0 1 A 1.5 1.5 0 0 1 36 29.5 1.5 1.5 0 0 1 34.5 31 1.5 1.5 0 0 1 33 29.5 1.5 1.5 0 0 1 34.5 28" style="fill:#3d8b58;fill-opacity:1"/>
   <circle cx="34.5" cy="29.5" r="0.5" style="fill:#3d8b58;fill-opacity:1"/>
  </g>
  <g>
   <path d="M 16.5 16 A 3.5 3.5 0 0 0 13 19.5 3.5 3.5 0 0 0 16.5 23 3.5 3.5 0 0 0 20 19.5 3.5 3.5 0 0 0 16.5 16 m 0 1 A 2.5 2.5 0 0 1 19 19.5 2.5 2.5 0 0 1 16.5 22 2.5 2.5 0 0 1 14 19.5 2.5 2.5 0 0 1 16.5 17" style="fill:#606060;fill-opacity:1"/>
   <path d="M 16.5 18 A 1.5 1.5 0 0 0 15 19.5 1.5 1.5 0 0 0 16.5 21 1.5 1.5 0 0 0 18 19.5 1.5 1.5 0 0 0 16.5 18 m 0 1 A 0.5 0.5 0 0 1 17 19.5 0.5 0.5 0 0 1 16.5 20 0.5 0.5 0 0 1 16 19.5 0.5 0.5 0 0 1 16.5 19" style="fill:#606060;fill-opacity:1"/>
  </g>
  <g transform="translate(0,9)">
   <path d="M 16.5 16 A 3.5 3.5 0 0 0 13 19.5 3.5 3.5 0 0 0 16.5 23 3.5 3.5 0 0 0 20 19.5 3.5 3.5 0 0 0 16.5 16 m 0 1 A 2.5 2.5 0 0 1 19 19.5 2.5 2.5 0 0 1 16.5 22 2.5 2.5 0 0 1 14 19.5 2.5 2.5 0 0 1 16.5 17" style="fill:#3d8b58;fill-opacity:1"/>
   <path d="M 16.5 18 A 1.5 1.5 0 0 0 15 19.5 1.5 1.5 0 0 0 16.5 21 1.5 1.5 0 0 0 18 19.5 1.5 1.5 0 0 0 16.5 18 m 0 1 A 0.5 0.5 0 0 1 17 19.5 0.5 0.5 0 0 1 16.5 20 0.5 0.5 0 0 1 16 19.5 0.5 0.5 0 0 1 16.5 19" style="fill:#3d8b58;fill-opacity:1"/>
  </g>
 </g>
</svg>
